app/src/content/assets/svg/calendar.svg

﻿<?xml version="1.0" encoding="utf-8"?>
<!DOCTYPE svg PUBLIC "-//W3C//DTD SVG 1.1//EN" "http://www.w3.org/Graphics/SVG/1.1/DTD/svg11.dtd">
<svg xmlns="http://www.w3.org/2000/svg" xmlns:xlink="http://www.w3.org/1999/xlink" version="1.1" baseProfile="full" width="76.0106" height="76.0106" viewBox="0 0 76.01 76.01" enable-background="new 0 0 76.01 76.01" xml:space="preserve">
	<path fill="#000000" fill-opacity="1" stroke-width="0.2" stroke-linejoin="round" d="M 18.0025,57.0081L 18.0025,23.0032L 23.0032,23.0032L 23.0032,20.0028C 23.0033,18.898 23.8988,18.0025 25.0035,18.0025L 29.004,18.0025C 30.1087,18.0025 31.0042,18.898 31.0043,20.0026L 31.0043,23.0032L 45.0063,23.0032L 45.0062,20.0026C 45.0062,18.8978 45.9018,18.0023 47.0065,18.0023L 51.0071,18.0023C 52.1118,18.0023 53.0074,18.8978 53.0074,20.0026L 53.0074,23.0032L 58.0081,23.0032L 58.0081,57.0081L 18.0025,57.0081 Z M 21.0029,54.0077L 55.0076,54.0077L 55.0076,31.0044L 21.0029,31.0044L 21.0029,54.0077 Z M 23.0032,47.0066L 29.004,47.0066L 29.004,52.0073L 23.0032,52.0073L 23.0032,47.0066 Z M 31.0043,47.0066L 37.0051,47.0066L 37.0051,52.0073L 31.0043,52.0073L 31.0043,47.0066 Z M 39.0054,47.0066L 45.0062,47.0066L 45.0062,52.0073L 39.0054,52.0073L 39.0054,47.0066 Z M 47.0065,47.0066L 53.0074,47.0066L 53.0074,52.0073L 47.0065,52.0073L 47.0065,47.0066 Z M 23.0032,40.0056L 29.004,40.0056L 29.004,45.0063L 23.0032,45.0063L 23.0032,40.0056 Z M 31.0043,40.0056L 37.0051,40.0056L 37.0051,45.0063L 31.0043,45.0063L 31.0043,40.0056 Z M 39.0054,40.0056L 45.0062,40.0056L 45.0062,45.0063L 39.0054,45.0063L 39.0054,40.0056 Z M 47.0065,40.0056L 53.0074,40.0056L 53.0074,45.0063L 47.0065,45.0063L 47.0065,40.0056 Z M 31.0043,33.0048L 37.0051,33.0048L 37.0051,38.0055L 31.0043,38.0055L 31.0043,33.0048 Z M 39.0054,33.0048L 45.0062,33.0048L 45.0062,38.0055L 39.0054,38.0055L 39.0054,33.0048 Z M 47.0065,33.0048L 53.0074,33.0048L 53.0074,38.0055L 47.0065,38.0055L 47.0065,33.0048 Z M 48.5067,20.0029C 47.6782,20.0029 47.0065,20.6745 47.0065,21.5031L 47.0065,24.5035C 47.0065,25.332 47.6782,26.0037 48.5067,26.0037L 49.5068,26.0037C 50.3354,26.0037 51.0071,25.332 51.0071,24.5035L 51.0071,21.5031C 51.0071,20.6745 50.3354,20.0029 49.5068,20.0029L 48.5067,20.0029 Z M 26.5037,20.0028C 25.6751,20.0028 25.0035,20.6745 25.0035,21.503L 25.0035,24.5035C 25.0035,25.332 25.6751,26.0037 26.5037,26.0037L 27.5038,26.0037C 28.3324,26.0037 29.004,25.332 29.004,24.5035L 29.004,21.503C 29.004,20.6745 28.3324,20.0028 27.5038,20.0028L 26.5037,20.0028 Z M 32.0045,41.0057L 32.0045,44.0061L 36.005,44.0061L 36.005,41.0057L 32.0045,41.0057 Z "/>
</svg>

<svg xmlns="http://www.w3.org/2000/svg" baseProfile="full" width="76.011" height="76.011" viewBox="0 0 76.01 76.01"><path d="M18.003 57.008V23.003h5v-3a2 2 0 0 1 2-2h4.001a2 2 0 0 1 2 2v3h14.002v-3a2 2 0 0 1 2-2h4.001a2 2 0 0 1 2 2v3h5.001v34.005H18.002zm3-3h34.005V31.004H21.003v23.004zm2-7.001h6.001v5h-6v-5zm8.001 0h6.001v5h-6v-5zm8.001 0h6.001v5h-6v-5zm8.002 0h6v5h-6v-5zm-24.004-7.001h6.001v5h-6v-5zm8.001 0h6.001v5h-6v-5zm8.001 0h6.001v5h-6v-5zm8.002 0h6v5h-6v-5zm-16.003-7.001h6.001v5h-6v-5zm8.001 0h6.001v5h-6v-5zm8.002 0h6v5h-6v-5zm1.5-13.002a1.5 1.5 0 0 0-1.5 1.5v3a1.5 1.5 0 0 0 1.5 1.5h1a1.5 1.5 0 0 0 1.5-1.5v-3a1.5 1.5 0 0 0-1.5-1.5h-1zm-22.003 0a1.5 1.5 0 0 0-1.5 1.5v3a1.5 1.5 0 0 0 1.5 1.5h1a1.5 1.5 0 0 0 1.5-1.5v-3a1.5 1.5 0 0 0-1.5-1.5h-1zm5.5 21.003v3h4.001v-3h-4z"/></svg>
